X: 1
T: Jig Away The Donkey
M: 4/4
L: 1/8
R: barndance
K: Dmin
D2 C2 DEFE|D2 CA, G,A, (3=B,A,G,|D2 C2 DEFE|D2 CA, D2 G,2|
D3 C DEFE|D2 CA, G,A,(3 =B,A,G, |D2 C2 DEFE|D2 CA, D2 G2|
Addc A2 AG|A=BcA G4|Addc A=BAG| ^FDEC D4|
Addc A2 AG|A=BcA G2 AG|F2 DE FGA=B|cAGE F2 EF|
